report_00007_2020-12-11T15:55:29.892Z/meta/score/comparison/sorted/0_vs_1.svg

<svg width="640" height="500" xmlns="http://www.w3.org/2000/svg" xmlns:xlink="http://www.w3.org/1999/xlink"><path fill="#fff" d="M0 0h640v500H0z"/><defs><path id="d" stroke-width=".222" stroke="currentColor" d="M-1-1h2v2h-2z"/><path id="b" stroke-width=".222" stroke="currentColor" d="M0-1.33l-1.33 2h2.66z"/><path id="f" stroke-width=".222" stroke="currentColor" d="M0 1.33L1.265.411.782-1.067l-1.564-.009-.483 1.487z"/><use xlink:href="#b" id="c" stroke="currentColor" transform="rotate(180)"/><use xlink:href="#d" id="e" stroke="currentColor" transform="rotate(45)"/><circle id="a" stroke-width=".222" stroke="currentColor" cx="0" cy="0" r="1"/></defs><g fill="none" color="#000" stroke="currentColor"><path stroke="#000" d="M53.9 379.3h9m552.1 0h-9"/><text transform="translate(45.6 383.2)" stroke="none" fill="#000" font-family="Arial" font-size="12" text-anchor="end"><tspan>0.5</tspan></text></g><g fill="none" color="#000" stroke="currentColor"><path stroke="#000" d="M53.9 308.7h9m552.1 0h-9"/><text transform="translate(45.6 312.6)" stroke="none" fill="#000" font-family="Arial" font-size="12" text-anchor="end"><tspan>0.6</tspan></text></g><g fill="none" color="#000" stroke="currentColor"><path stroke="#000" d="M53.9 238.1h9m552.1 0h-9"/><text transform="translate(45.6 242)" stroke="none" fill="#000" font-family="Arial" font-size="12" text-anchor="end"><tspan>0.7</tspan></text></g><g fill="none" color="#000" stroke="currentColor"><path stroke="#000" d="M53.9 167.5h9m552.1 0h-9"/><text transform="translate(45.6 171.4)" stroke="none" fill="#000" font-family="Arial" font-size="12" text-anchor="end"><tspan>0.8</tspan></text></g><g fill="none" color="#000" stroke="currentColor"><path stroke="#000" d="M53.9 96.9h9m552.1 0h-9"/><text transform="translate(45.6 100.8)" stroke="none" fill="#000" font-family="Arial" font-size="12" text-anchor="end"><tspan>0.9</tspan></text></g><g fill="none" color="#000" stroke="currentColor"><path stroke="#000" d="M53.9 26.3h9m552.1 0h-9"/><text transform="translate(45.6 30.2)" stroke="none" fill="#000" font-family="Arial" font-size="12" text-anchor="end"><tspan>1</tspan></text></g><g fill="none" color="#000" stroke="currentColor"><path stroke="#000" d="M53.9 446v-9m0-418.9v9"/><text transform="translate(53.9 467.9)" stroke="none" fill="#000" font-family="Arial" font-size="12" text-anchor="middle"><tspan>0</tspan></text></g><g fill="none" color="#000" stroke="currentColor"><path stroke="#000" d="M110.6 446v-9m0-418.9v9"/><text transform="translate(110.6 467.9)" stroke="none" fill="#000" font-family="Arial" font-size="12" text-anchor="middle"><tspan>10</tspan></text></g><g fill="none" color="#000" stroke="currentColor"><path stroke="#000" d="M167.3 446v-9m0-418.9v9"/><text transform="translate(167.3 467.9)" stroke="none" fill="#000" font-family="Arial" font-size="12" text-anchor="middle"><tspan>20</tspan></text></g><g fill="none" color="#000" stroke="currentColor"><path stroke="#000" d="M223.9 446v-9m0-418.9v9"/><text transform="translate(223.9 467.9)" stroke="none" fill="#000" font-family="Arial" font-size="12" text-anchor="middle"><tspan>30</tspan></text></g><g fill="none" color="#000" stroke="currentColor"><path stroke="#000" d="M280.6 446v-9m0-418.9v9"/><text transform="translate(280.6 467.9)" stroke="none" fill="#000" font-family="Arial" font-size="12" text-anchor="middle"><tspan>40</tspan></text></g><g fill="none" color="#000" stroke="currentColor"><path stroke="#000" d="M337.3 446v-9m0-418.9v9"/><text transform="translate(337.3 467.9)" stroke="none" fill="#000" font-family="Arial" font-size="12" text-anchor="middle"><tspan>50</tspan></text></g><g fill="none" color="#000" stroke="currentColor"><path stroke="#000" d="M394 446v-9m0-418.9v9"/><text transform="translate(394 467.9)" stroke="none" fill="#000" font-family="Arial" font-size="12" text-anchor="middle"><tspan>60</tspan></text></g><g fill="none" color="#000" stroke="currentColor"><path stroke="#000" d="M450.6 446v-9m0-418.9v9"/><text transform="translate(450.6 467.9)" stroke="none" fill="#000" font-family="Arial" font-size="12" text-anchor="middle"><tspan>70</tspan></text></g><g fill="none" color="#000" stroke="currentColor"><path stroke="#000" d="M507.3 446v-9m0-418.9v9"/><text transform="translate(507.3 467.9)" stroke="none" fill="#000" font-family="Arial" font-size="12" text-anchor="middle"><tspan>80</tspan></text></g><g fill="none" color="#000" stroke="currentColor"><path stroke="#000" d="M564 446v-9m0-418.9v9"/><text transform="translate(564 467.9)" stroke="none" fill="#000" font-family="Arial" font-size="12" text-anchor="middle"><tspan>90</tspan></text></g><path stroke="#000" d="M53.9 18.1V446H615V18.1H53.9z" fill="none" color="#000"/><text transform="translate(275.6 485.9)" stroke="none" fill="#000" font-family="Arial" font-size="12" text-anchor="end" color="#000"><tspan>empty</tspan></text><path stroke="#9400D3" d="M283.9 482h42.2M53.9 26.3H615" fill="none" color="#000"/><text transform="translate(375.9 485.9)" stroke="none" fill="#000" font-family="Arial" font-size="12" text-anchor="end" color="#000"><tspan>pages</tspan></text><path stroke="#009E73" d="M384.2 482h42.2M53.9 437.8l5.7-8.9 5.6-19.9 5.7-1.3 5.7-.1 5.6-2.9h5.7l5.7-.1 5.6-.7 5.7-.9 5.7-.7 5.6-.3 5.7-.4 5.7-.1 5.6-.4 5.7-.1 5.7-.1 5.7-.4 5.6-.2 5.7-.1 5.7-.1 5.6-.1h5.7l5.7-.1 5.6-.2 5.7-.1 5.7-.1 5.6-.1h5.7l5.7-.3h11.3l5.7-.1 5.6-.2 5.7-.2 5.7-.1h5.6l5.7-.1h5.7l5.6-.1 5.7-.1 5.7-.1 5.6-.1h11.4l5.6-.1h5.7l5.7-.1 5.6-.1 5.7-.1 5.7-.3 5.7-.1 5.6-.1 5.7-.1 5.7-.1 5.6-.2 5.7-.2h5.7l5.6-.2 5.7-.3 5.7-.1 5.6-1.4 5.7-.9 5.7-.9 5.6-.3 5.7-4.1 5.7-.7 5.6-.1 5.7-.1 5.7-.9 5.6-.4 5.7-.6 5.7-.5 5.6-.6 5.7-1.5 5.7-.5h5.6l5.7-1.5 5.7-.8 5.6-.3 5.7-2.7 5.7-2.2 5.6-.2 5.7-2 5.7-.3 5.7-.3 5.6-.1 5.7-.4 5.7-.4 5.6-.5 5.7-.1h5.7l5.6-.8 5.7-.3 5.7-.2 5.6-.1h5.7l5.7-.1 5.6-.6h5.7" fill="none" color="#000"/><g fill="none" color="#000" stroke="currentColor"><path stroke="#000" d="M53.9 18.1V446H615V18.1H53.9z"/></g></svg>

<?xml version="1.0" encoding="utf-8"  standalone="no"?>
<svg 
 width="640" height="500"
 viewBox="0 0 640 500"
 xmlns="http://www.w3.org/2000/svg"
 xmlns:xlink="http://www.w3.org/1999/xlink"
>

<title>Gnuplot</title>
<desc>Produced by GNUPLOT 5.4 patchlevel 0 </desc>

<g id="gnuplot_canvas">

<rect x="0" y="0" width="640" height="500" fill="#ffffff"/>
<defs>

	<circle id='gpDot' r='0.5' stroke-width='0.5' stroke='currentColor'/>
	<path id='gpPt0' stroke-width='0.222' stroke='currentColor' d='M-1,0 h2 M0,-1 v2'/>
	<path id='gpPt1' stroke-width='0.222' stroke='currentColor' d='M-1,-1 L1,1 M1,-1 L-1,1'/>
	<path id='gpPt2' stroke-width='0.222' stroke='currentColor' d='M-1,0 L1,0 M0,-1 L0,1 M-1,-1 L1,1 M-1,1 L1,-1'/>
	<rect id='gpPt3' stroke-width='0.222' stroke='currentColor' x='-1' y='-1' width='2' height='2'/>
	<rect id='gpPt4' stroke-width='0.222' stroke='currentColor' fill='currentColor' x='-1' y='-1' width='2' height='2'/>
	<circle id='gpPt5' stroke-width='0.222' stroke='currentColor' cx='0' cy='0' r='1'/>
	<use xlink:href='#gpPt5' id='gpPt6' fill='currentColor' stroke='none'/>
	<path id='gpPt7' stroke-width='0.222' stroke='currentColor' d='M0,-1.33 L-1.33,0.67 L1.33,0.67 z'/>
	<use xlink:href='#gpPt7' id='gpPt8' fill='currentColor' stroke='none'/>
	<use xlink:href='#gpPt7' id='gpPt9' stroke='currentColor' transform='rotate(180)'/>
	<use xlink:href='#gpPt9' id='gpPt10' fill='currentColor' stroke='none'/>
	<use xlink:href='#gpPt3' id='gpPt11' stroke='currentColor' transform='rotate(45)'/>
	<use xlink:href='#gpPt11' id='gpPt12' fill='currentColor' stroke='none'/>
	<path id='gpPt13' stroke-width='0.222' stroke='currentColor' d='M0,1.330 L1.265,0.411 L0.782,-1.067 L-0.782,-1.076 L-1.265,0.411 z'/>
	<use xlink:href='#gpPt13' id='gpPt14' fill='currentColor' stroke='none'/>
	<filter id='textbox' filterUnits='objectBoundingBox' x='0' y='0' height='1' width='1'>
	  <feFlood flood-color='#FFFFFF' flood-opacity='1' result='bgnd'/>
	  <feComposite in='SourceGraphic' in2='bgnd' operator='atop'/>
	</filter>
	<filter id='greybox' filterUnits='objectBoundingBox' x='0' y='0' height='1' width='1'>
	  <feFlood flood-color='lightgrey' flood-opacity='1' result='grey'/>
	  <feComposite in='SourceGraphic' in2='grey' operator='atop'/>
	</filter>
</defs>
<g fill="none" color="#FFFFFF" stroke="black" stroke-width="1.00" stroke-linecap="butt" stroke-linejoin="miter">
</g>
<g fill="none" color="black" stroke="currentColor" stroke-width="1.00" stroke-linecap="butt" stroke-linejoin="miter">
	<path stroke='black'  d='M53.9,379.3 L62.9,379.3 M615.0,379.3 L606.0,379.3  '/>	<g transform="translate(45.6,383.2)" stroke="none" fill="black" font-family="Arial" font-size="12.00"  text-anchor="end">
		<text><tspan font-family="Arial" > 0.5</tspan></text>
	</g>
</g>
<g fill="none" color="black" stroke="currentColor" stroke-width="1.00" stroke-linecap="butt" stroke-linejoin="miter">
	<path stroke='black'  d='M53.9,308.7 L62.9,308.7 M615.0,308.7 L606.0,308.7  '/>	<g transform="translate(45.6,312.6)" stroke="none" fill="black" font-family="Arial" font-size="12.00"  text-anchor="end">
		<text><tspan font-family="Arial" > 0.6</tspan></text>
	</g>
</g>
<g fill="none" color="black" stroke="currentColor" stroke-width="1.00" stroke-linecap="butt" stroke-linejoin="miter">
	<path stroke='black'  d='M53.9,238.1 L62.9,238.1 M615.0,238.1 L606.0,238.1  '/>	<g transform="translate(45.6,242.0)" stroke="none" fill="black" font-family="Arial" font-size="12.00"  text-anchor="end">
		<text><tspan font-family="Arial" > 0.7</tspan></text>
	</g>
</g>
<g fill="none" color="black" stroke="currentColor" stroke-width="1.00" stroke-linecap="butt" stroke-linejoin="miter">
	<path stroke='black'  d='M53.9,167.5 L62.9,167.5 M615.0,167.5 L606.0,167.5  '/>	<g transform="translate(45.6,171.4)" stroke="none" fill="black" font-family="Arial" font-size="12.00"  text-anchor="end">
		<text><tspan font-family="Arial" > 0.8</tspan></text>
	</g>
</g>
<g fill="none" color="black" stroke="currentColor" stroke-width="1.00" stroke-linecap="butt" stroke-linejoin="miter">
	<path stroke='black'  d='M53.9,96.9 L62.9,96.9 M615.0,96.9 L606.0,96.9  '/>	<g transform="translate(45.6,100.8)" stroke="none" fill="black" font-family="Arial" font-size="12.00"  text-anchor="end">
		<text><tspan font-family="Arial" > 0.9</tspan></text>
	</g>
</g>
<g fill="none" color="black" stroke="currentColor" stroke-width="1.00" stroke-linecap="butt" stroke-linejoin="miter">
	<path stroke='black'  d='M53.9,26.3 L62.9,26.3 M615.0,26.3 L606.0,26.3  '/>	<g transform="translate(45.6,30.2)" stroke="none" fill="black" font-family="Arial" font-size="12.00"  text-anchor="end">
		<text><tspan font-family="Arial" > 1</tspan></text>
	</g>
</g>
<g fill="none" color="black" stroke="currentColor" stroke-width="1.00" stroke-linecap="butt" stroke-linejoin="miter">
	<path stroke='black'  d='M53.9,446.0 L53.9,437.0 M53.9,18.1 L53.9,27.1  '/>	<g transform="translate(53.9,467.9)" stroke="none" fill="black" font-family="Arial" font-size="12.00"  text-anchor="middle">
		<text><tspan font-family="Arial" > 0</tspan></text>
	</g>
</g>
<g fill="none" color="black" stroke="currentColor" stroke-width="1.00" stroke-linecap="butt" stroke-linejoin="miter">
	<path stroke='black'  d='M110.6,446.0 L110.6,437.0 M110.6,18.1 L110.6,27.1  '/>	<g transform="translate(110.6,467.9)" stroke="none" fill="black" font-family="Arial" font-size="12.00"  text-anchor="middle">
		<text><tspan font-family="Arial" > 10</tspan></text>
	</g>
</g>
<g fill="none" color="black" stroke="currentColor" stroke-width="1.00" stroke-linecap="butt" stroke-linejoin="miter">
	<path stroke='black'  d='M167.3,446.0 L167.3,437.0 M167.3,18.1 L167.3,27.1  '/>	<g transform="translate(167.3,467.9)" stroke="none" fill="black" font-family="Arial" font-size="12.00"  text-anchor="middle">
		<text><tspan font-family="Arial" > 20</tspan></text>
	</g>
</g>
<g fill="none" color="black" stroke="currentColor" stroke-width="1.00" stroke-linecap="butt" stroke-linejoin="miter">
	<path stroke='black'  d='M223.9,446.0 L223.9,437.0 M223.9,18.1 L223.9,27.1  '/>	<g transform="translate(223.9,467.9)" stroke="none" fill="black" font-family="Arial" font-size="12.00"  text-anchor="middle">
		<text><tspan font-family="Arial" > 30</tspan></text>
	</g>
</g>
<g fill="none" color="black" stroke="currentColor" stroke-width="1.00" stroke-linecap="butt" stroke-linejoin="miter">
	<path stroke='black'  d='M280.6,446.0 L280.6,437.0 M280.6,18.1 L280.6,27.1  '/>	<g transform="translate(280.6,467.9)" stroke="none" fill="black" font-family="Arial" font-size="12.00"  text-anchor="middle">
		<text><tspan font-family="Arial" > 40</tspan></text>
	</g>
</g>
<g fill="none" color="black" stroke="currentColor" stroke-width="1.00" stroke-linecap="butt" stroke-linejoin="miter">
	<path stroke='black'  d='M337.3,446.0 L337.3,437.0 M337.3,18.1 L337.3,27.1  '/>	<g transform="translate(337.3,467.9)" stroke="none" fill="black" font-family="Arial" font-size="12.00"  text-anchor="middle">
		<text><tspan font-family="Arial" > 50</tspan></text>
	</g>
</g>
<g fill="none" color="black" stroke="currentColor" stroke-width="1.00" stroke-linecap="butt" stroke-linejoin="miter">
	<path stroke='black'  d='M394.0,446.0 L394.0,437.0 M394.0,18.1 L394.0,27.1  '/>	<g transform="translate(394.0,467.9)" stroke="none" fill="black" font-family="Arial" font-size="12.00"  text-anchor="middle">
		<text><tspan font-family="Arial" > 60</tspan></text>
	</g>
</g>
<g fill="none" color="black" stroke="currentColor" stroke-width="1.00" stroke-linecap="butt" stroke-linejoin="miter">
	<path stroke='black'  d='M450.6,446.0 L450.6,437.0 M450.6,18.1 L450.6,27.1  '/>	<g transform="translate(450.6,467.9)" stroke="none" fill="black" font-family="Arial" font-size="12.00"  text-anchor="middle">
		<text><tspan font-family="Arial" > 70</tspan></text>
	</g>
</g>
<g fill="none" color="black" stroke="currentColor" stroke-width="1.00" stroke-linecap="butt" stroke-linejoin="miter">
	<path stroke='black'  d='M507.3,446.0 L507.3,437.0 M507.3,18.1 L507.3,27.1  '/>	<g transform="translate(507.3,467.9)" stroke="none" fill="black" font-family="Arial" font-size="12.00"  text-anchor="middle">
		<text><tspan font-family="Arial" > 80</tspan></text>
	</g>
</g>
<g fill="none" color="black" stroke="currentColor" stroke-width="1.00" stroke-linecap="butt" stroke-linejoin="miter">
	<path stroke='black'  d='M564.0,446.0 L564.0,437.0 M564.0,18.1 L564.0,27.1  '/>	<g transform="translate(564.0,467.9)" stroke="none" fill="black" font-family="Arial" font-size="12.00"  text-anchor="middle">
		<text><tspan font-family="Arial" > 90</tspan></text>
	</g>
</g>
<g fill="none" color="black" stroke="currentColor" stroke-width="1.00" stroke-linecap="butt" stroke-linejoin="miter">
</g>
<g fill="none" color="black" stroke="currentColor" stroke-width="1.00" stroke-linecap="butt" stroke-linejoin="miter">
	<path stroke='black'  d='M53.9,18.1 L53.9,446.0 L615.0,446.0 L615.0,18.1 L53.9,18.1 Z  '/></g>
<g fill="none" color="black" stroke="currentColor" stroke-width="1.00" stroke-linecap="butt" stroke-linejoin="miter">
</g>
	<g id="gnuplot_plot_1" ><title>empty</title>
<g fill="none" color="black" stroke="currentColor" stroke-width="1.00" stroke-linecap="butt" stroke-linejoin="miter">
	<g transform="translate(275.6,485.9)" stroke="none" fill="black" font-family="Arial" font-size="12.00"  text-anchor="end">
		<text><tspan font-family="Arial" >empty</tspan></text>
	</g>
</g>
<g fill="none" color="black" stroke="currentColor" stroke-width="1.00" stroke-linecap="butt" stroke-linejoin="miter">
	<path stroke='rgb(148,   0, 211)'  d='M283.9,482.0 L326.1,482.0 M53.9,26.3 L59.6,26.3 L65.2,26.3 L70.9,26.3 L76.6,26.3 L82.2,26.3
		L87.9,26.3 L93.6,26.3 L99.2,26.3 L104.9,26.3 L110.6,26.3 L116.2,26.3 L121.9,26.3 L127.6,26.3
		L133.2,26.3 L138.9,26.3 L144.6,26.3 L150.3,26.3 L155.9,26.3 L161.6,26.3 L167.3,26.3 L172.9,26.3
		L178.6,26.3 L184.3,26.3 L189.9,26.3 L195.6,26.3 L201.3,26.3 L206.9,26.3 L212.6,26.3 L218.3,26.3
		L223.9,26.3 L229.6,26.3 L235.3,26.3 L240.9,26.3 L246.6,26.3 L252.3,26.3 L257.9,26.3 L263.6,26.3
		L269.3,26.3 L274.9,26.3 L280.6,26.3 L286.3,26.3 L291.9,26.3 L297.6,26.3 L303.3,26.3 L308.9,26.3
		L314.6,26.3 L320.3,26.3 L325.9,26.3 L331.6,26.3 L337.3,26.3 L343.0,26.3 L348.6,26.3 L354.3,26.3
		L360.0,26.3 L365.6,26.3 L371.3,26.3 L377.0,26.3 L382.6,26.3 L388.3,26.3 L394.0,26.3 L399.6,26.3
		L405.3,26.3 L411.0,26.3 L416.6,26.3 L422.3,26.3 L428.0,26.3 L433.6,26.3 L439.3,26.3 L445.0,26.3
		L450.6,26.3 L456.3,26.3 L462.0,26.3 L467.6,26.3 L473.3,26.3 L479.0,26.3 L484.6,26.3 L490.3,26.3
		L496.0,26.3 L501.6,26.3 L507.3,26.3 L513.0,26.3 L518.6,26.3 L524.3,26.3 L530.0,26.3 L535.7,26.3
		L541.3,26.3 L547.0,26.3 L552.7,26.3 L558.3,26.3 L564.0,26.3 L569.7,26.3 L575.3,26.3 L581.0,26.3
		L586.7,26.3 L592.3,26.3 L598.0,26.3 L603.7,26.3 L609.3,26.3 L615.0,26.3  '/></g>
	</g>
	<g id="gnuplot_plot_2" ><title>pages</title>
<g fill="none" color="black" stroke="currentColor" stroke-width="1.00" stroke-linecap="butt" stroke-linejoin="miter">
	<g transform="translate(375.9,485.9)" stroke="none" fill="black" font-family="Arial" font-size="12.00"  text-anchor="end">
		<text><tspan font-family="Arial" >pages</tspan></text>
	</g>
</g>
<g fill="none" color="black" stroke="currentColor" stroke-width="1.00" stroke-linecap="butt" stroke-linejoin="miter">
	<path stroke='rgb(  0, 158, 115)'  d='M384.2,482.0 L426.4,482.0 M53.9,437.8 L59.6,428.9 L65.2,409.0 L70.9,407.7 L76.6,407.6 L82.2,404.7
		L87.9,404.7 L93.6,404.6 L99.2,403.9 L104.9,403.0 L110.6,402.3 L116.2,402.0 L121.9,401.6 L127.6,401.5
		L133.2,401.1 L138.9,401.0 L144.6,400.9 L150.3,400.5 L155.9,400.3 L161.6,400.2 L167.3,400.1 L172.9,400.0
		L178.6,400.0 L184.3,399.9 L189.9,399.7 L195.6,399.6 L201.3,399.5 L206.9,399.4 L212.6,399.4 L218.3,399.1
		L223.9,399.1 L229.6,399.1 L235.3,399.0 L240.9,398.8 L246.6,398.6 L252.3,398.5 L257.9,398.5 L263.6,398.4
		L269.3,398.4 L274.9,398.3 L280.6,398.2 L286.3,398.1 L291.9,398.0 L297.6,398.0 L303.3,398.0 L308.9,397.9
		L314.6,397.9 L320.3,397.8 L325.9,397.7 L331.6,397.6 L337.3,397.3 L343.0,397.2 L348.6,397.1 L354.3,397.0
		L360.0,396.9 L365.6,396.7 L371.3,396.5 L377.0,396.5 L382.6,396.3 L388.3,396.0 L394.0,395.9 L399.6,394.5
		L405.3,393.6 L411.0,392.7 L416.6,392.4 L422.3,388.3 L428.0,387.6 L433.6,387.5 L439.3,387.4 L445.0,386.5
		L450.6,386.1 L456.3,385.5 L462.0,385.0 L467.6,384.4 L473.3,382.9 L479.0,382.4 L484.6,382.4 L490.3,380.9
		L496.0,380.1 L501.6,379.8 L507.3,377.1 L513.0,374.9 L518.6,374.7 L524.3,372.7 L530.0,372.4 L535.7,372.1
		L541.3,372.0 L547.0,371.6 L552.7,371.2 L558.3,370.7 L564.0,370.6 L569.7,370.6 L575.3,369.8 L581.0,369.5
		L586.7,369.3 L592.3,369.2 L598.0,369.2 L603.7,369.1 L609.3,368.5 L615.0,368.5  '/></g>
	</g>
<g fill="none" color="#FFFFFF" stroke="rgb(  0, 158, 115)" stroke-width="2.00" stroke-linecap="butt" stroke-linejoin="miter">
</g>
<g fill="none" color="black" stroke="currentColor" stroke-width="2.00" stroke-linecap="butt" stroke-linejoin="miter">
</g>
<g fill="none" color="black" stroke="black" stroke-width="1.00" stroke-linecap="butt" stroke-linejoin="miter">
</g>
<g fill="none" color="black" stroke="currentColor" stroke-width="1.00" stroke-linecap="butt" stroke-linejoin="miter">
	<path stroke='black'  d='M53.9,18.1 L53.9,446.0 L615.0,446.0 L615.0,18.1 L53.9,18.1 Z  '/></g>
<g fill="none" color="black" stroke="currentColor" stroke-width="1.00" stroke-linecap="butt" stroke-linejoin="miter">
</g>
</g>
</svg>
